X: 8
T:Clan March, A (#58)
M:6/8
L:1/8
S:Aird's Selections 1782-97
R:March
K:D
A|A>FA A>FA|A>FA A2 d|B>dB B>AB|d>ef "tr"f2 e|
e>fa b/2c'/2d'b|afe d>ef|f>ba f>ef|d>BB B2||
a|aba afa|bc'b b2 a|afa bag|"tr"f2 e d2 b|
d'ba baf|afe def|fba fef|d>BB B2||
%
% In Aird's Selections of Scotch, English, Irish and
% Foreign Airs etc this tune is designated "An Irish Jigg"
% while in the index it is named "An Irish Air". Its emphatic
% swing and antique cadences proclaim this spirited
% strain a march, altho as "The Hibernian Jig" it was
% included in O"Neill's Dance Music of Ireland 1907,
% but in a much lower key.

